static/images/skills/dart.svg

<svg xmlns="http://www.w3.org/2000/svg" xml:space="preserve" style="fill-rule:evenodd;clip-rule:evenodd;stroke-linejoin:round;stroke-miterlimit:2" viewBox="0 0 1200 900"><path d="M0 0h1200v900H0z" style="fill:#003657"/><path d="M109.6 109.3 26.9 26.6v59.7l.1 2.8c0 1.3.2 2.8.7 4.3l65.6 23.1z" style="fill:#00c4b3;fill-rule:nonzero" transform="translate(299.69 149.511)scale(4.69499)"/><path d="m109.6 109.3-16.3 7.2-65.4-23.1c1.3 4.8 4 10.1 7 13.2l21.3 21.2 47.6.1z" style="fill:#22d3c5;fill-rule:nonzero" transform="translate(299.69 149.511)scale(4.69499)"/><path d="M1.7 65.1C-.4 67.3.7 72 4 75.5l14.7 14.8 9.2 3.3c-.3-1.5-.7-3-.7-4.3l-.1-2.8-.2-59.8m82.7 82.6 7.2-16.4-23-65.6c-1.5-.3-3-.6-4.3-.7l-2.9-.1-59.6.1" style="fill:#0075c9;fill-rule:nonzero" transform="translate(299.69 149.511)scale(4.69499)"/><path d="M93.6 27.3q.3 0 0 0m16 82 17.7-5.8V54.8l-20.4-20.5c-3-3-8.3-5.8-13.2-7l23.1 65.6" style="fill:#00a8e1;fill-rule:nonzero" transform="translate(299.69 149.511)scale(4.69499)"/><path d="M90.5 18.2 75.7 3.5c-3.4-3.4-8-4.4-10.4-2.3L26.9 26.6h59.5l2.9.1c1.3 0 2.8.2 4.3.7z" style="fill:#00c4b3;fill-rule:nonzero" transform="translate(299.69 149.511)scale(4.69499)"/></svg>

<?xml version="1.0" encoding="UTF-8" standalone="no"?>
<!DOCTYPE svg PUBLIC "-//W3C//DTD SVG 1.1//EN" "http://www.w3.org/Graphics/SVG/1.1/DTD/svg11.dtd">
<svg width="100%" height="100%" viewBox="0 0 1200 900" version="1.1" xmlns="http://www.w3.org/2000/svg" xmlns:xlink="http://www.w3.org/1999/xlink" xml:space="preserve" xmlns:serif="http://www.serif.com/" style="fill-rule:evenodd;clip-rule:evenodd;stroke-linejoin:round;stroke-miterlimit:2;">
    <rect x="0" y="0" width="1200" height="900" style="fill:rgb(0,54,87);"/>
    <g transform="matrix(4.79233,0,0,4.79233,293.291,143.291)">
        <g transform="matrix(0.979688,0,0,0.979688,1.33523,1.29794)">
            <path d="M109.6,109.3L26.9,26.6L26.9,86.3L27,89.1C27,90.4 27.2,91.9 27.7,93.4L93.3,116.5L109.6,109.3Z" style="fill:rgb(0,196,179);fill-rule:nonzero;"/>
        </g>
        <g transform="matrix(0.979688,0,0,0.979688,1.33523,1.29794)">
            <path d="M109.6,109.3L93.3,116.5L27.9,93.4C29.2,98.2 31.9,103.5 34.9,106.6L56.2,127.8L103.8,127.9L109.6,109.3Z" style="fill:rgb(34,211,197);fill-rule:nonzero;"/>
        </g>
        <g transform="matrix(0.979688,0,0,0.979688,1.33523,1.29794)">
            <path d="M1.7,65.1C-0.4,67.3 0.7,72 4,75.5L18.7,90.3L27.9,93.6C27.6,92.1 27.2,90.6 27.2,89.3L27.1,86.5L26.9,26.7M109.6,109.3L116.8,92.9L93.8,27.3C92.3,27 90.8,26.7 89.5,26.6L86.6,26.5L27,26.6" style="fill:rgb(0,117,201);fill-rule:nonzero;"/>
        </g>
        <g transform="matrix(0.979688,0,0,0.979688,1.33523,1.29794)">
            <path d="M93.6,27.3C93.8,27.3 93.8,27.3 93.6,27.3ZM109.6,109.3L127.3,103.5L127.3,54.8L106.9,34.3C103.9,31.3 98.6,28.5 93.7,27.3L116.8,92.9" style="fill:rgb(0,168,225);fill-rule:nonzero;"/>
        </g>
        <g transform="matrix(0.979688,0,0,0.979688,1.33523,1.29794)">
            <path d="M90.5,18.2L75.7,3.5C72.3,0.1 67.7,-0.9 65.3,1.2L26.9,26.6L86.4,26.6L89.3,26.7C90.6,26.7 92.1,26.9 93.6,27.4L90.5,18.2Z" style="fill:rgb(0,196,179);fill-rule:nonzero;"/>
        </g>
    </g>
</svg>
